X: 28240
T: Mrs. Gunn's
R: strathspey
M: 4/4
K: Eminor
B/|G<EB>G {G}E>FG>E|F<EA>F d>AF<D|G<EB>G E>eG>B|A>c{Bc}B>A G<EE>B|
G<EB>G {G}E>FG>E|F<DA>F d>AF<D|G<EB>G e>B{ga}g>e|b>ga>f {ga}g<eee/f/||
a/g/f/e/ b>e {f}g/f/e/^d/ e>B|d>fa>f d<DFA|e>gbe e<Be>G|A>c{Bc}B>A G<E Ee/f/|
a/g/f/e/ b>e {ga}g>e{^d}e>B|d>fA>f A<dF<D|{D}G>EC<E B,<EA,3/2B//c//|B>AG>F G<E E3/2||

